public/svgs/twin/anatomy-m2-3.svg

<svg width="100%" height="100%" viewBox="0 0 32 32" fill="none" xmlns="http://www.w3.org/2000/svg">
<path fill-rule="evenodd" clip-rule="evenodd" d="M5.67647 12.4342C5.62499 10.252 5.27548 8.08708 4.63765 5.99954C3.73424 3.21016 5.07832 4.08571 5.6759 4.47498L5.6759 4.47498C5.7905 4.54963 5.87765 4.6064 5.91622 4.616C6.21608 4.69015 6.51467 4.76955 6.81334 4.84898L6.81334 4.84898C7.36505 4.99571 7.91703 5.1425 8.47775 5.25631C9.85546 5.47124 11.2452 5.60043 12.6389 5.64313C14.9569 5.78587 17.1999 6.51866 19.1551 7.77194C20.5741 8.64228 21.7991 9.79499 22.754 11.1585C23.709 12.522 24.3734 14.0673 24.7062 15.6983C25.0165 17.4343 25.2363 19.1851 25.3647 20.9439C25.4856 22.3238 25.8107 23.678 26.3295 24.9624C27.2058 27.1315 26.5 27 24.9957 26.3821C23.6346 25.8501 22.2022 25.5227 20.7451 25.4109C19.1652 25.3037 17.5921 25.1134 16.0322 24.8407C14.2505 24.5345 12.5633 23.8221 11.1013 22.7587C9.47622 21.559 8.14396 20.0069 7.20444 18.2188C6.26491 16.4307 5.74253 14.453 5.67647 12.4342ZM6.92319 12.8928L6.92319 12.8928L6.92316 12.8928C6.8252 12.6733 6.73209 12.4647 6.6414 12.2682C8.24179 20.9103 16.2437 23.791 18.8044 24.4312C10.3295 20.5241 8.20824 15.7718 6.92319 12.8928ZM10.7363 10.7494C11.6226 12.6699 14.7457 16.9458 19.8486 20.2262C18.0758 19.783 12.9232 16.5813 10.7363 10.7494ZM10.3839 7.1226C17.0542 9.80251 20.1904 12.489 23.8985 20.7527C23.1414 17.5814 21.0375 9.21271 10.3839 7.1226Z" fill="current"/>
</svg>

<svg xmlns="http://www.w3.org/2000/svg" fill="none" viewBox="0 0 32 32"><path fill="current" fill-rule="evenodd" d="M5.676 12.434A24 24 0 0 0 4.638 6c-.904-2.79.44-1.914 1.038-1.525.114.075.202.131.24.141q.45.113.897.233c.552.147 1.104.293 1.665.407 1.377.215 2.767.344 4.16.387 2.319.143 4.562.876 6.517 2.129a12.15 12.15 0 0 1 5.551 7.926q.465 2.606.659 5.246c.12 1.38.446 2.734.965 4.018.876 2.17.17 2.038-1.334 1.42a14.8 14.8 0 0 0-4.25-.971 45 45 0 0 1-4.714-.57 11.8 11.8 0 0 1-4.93-2.082 13.38 13.38 0 0 1-5.426-10.325m1.247.459a55 55 0 0 0-.282-.625c1.6 8.642 9.603 11.523 12.163 12.163-8.474-3.907-10.596-8.66-11.88-11.538m3.813-2.144c.887 1.92 4.01 6.197 9.113 9.477-1.773-.443-6.926-3.645-9.113-9.477m-.352-3.626c6.67 2.68 9.806 5.366 13.514 13.63-.757-3.172-2.86-11.54-13.514-13.63" clip-rule="evenodd"/></svg>
